F[ERK5
CUT[Es wollt ein Maedchen waschen gan]
REG[Europa, Mitteleuropa, Deutschland]
KEY[L0072  08  G 2/2]
MEL[1_  1__1__  5__.4_  5__3b__  2__0_
    3b_  4__4__  5__.4_  3b__2__  1__0_
    5_  4__2__  3b__1__  2___  -5__0_
    2_  3b__2__  1__5__  4__3b__  2123b4_
    5_  3b_1_2__  1__4__  2_2_3b_4_  567b65_4_  ^3b213b_2_  1__. //] >>
FCT[Lied]
CMT[Aus: 68 Lieder. 1550 No. 30]
